src/24x24/places/folder-gruvbox-material-purple-mail.svg

<?xml version="1.0" encoding="UTF-8"?>
<svg width="24" height="24" version="1" xmlns="http://www.w3.org/2000/svg">
 <rect x="2" y="9.5" width="20" height="12" rx="1" ry="1" opacity=".2"/>
 <path d="m2 17c0 0.554 0.446 1 1 1h18c0.554 0 1-0.446 1-1v-11c0-0.554-0.446-1-1-1h-9c-1.5 0-2-2-3.5-2h-5.5c-0.554 0-1 0.446-1 1" fill="#945e80"/>
 <rect x="2" y="8.5" width="20" height="12" rx="1" ry="1" opacity=".2"/>
 <rect x="4" y="7" width="16" height="8" rx="1" ry="1" fill="#E5DFC8"/>
 <rect x="2" y="9" width="20" height="12" rx="1" ry="1" fill="#d3869b"/>
 <path d="m3 3c-0.554 0-1 0.446-1 1v0.5c0-0.554 0.446-1 1-1h5.5c1.5 0 2 2 3.5 2h9c0.554 0 1 0.446 1 1v-0.5c0-0.554-0.446-1-1-1h-9c-1.5 0-2-2-3.5-2z" fill="#E5DFC8" opacity=".1"/>
 <path d="m12.5 11c-1.933 0-3.5 1.567-3.5 3.5s1.567 3.5 3.5 3.5h2.188s0.41 0 0.437-0.438c0-0.437-0.437-0.437-0.437-0.437h-2.188c-1.45 0-2.625-1.175-2.625-2.625s1.175-2.625 2.625-2.625 2.625 1.175 2.625 2.625v0.438c0 0.241-0.196 0.437-0.437 0.437-0.242 0-0.438-0.196-0.438-0.437v-0.438c0-0.966-0.783-1.75-1.75-1.75-0.966 0-1.75 0.784-1.75 1.75 0 0.967 0.784 1.75 1.75 1.75 0.458 0 0.871-0.181 1.183-0.468 0.249 0.296 0.617 0.468 1.005 0.468 0.725 0 1.312-0.588 1.312-1.313v-0.437c0-1.933-1.567-3.5-3.5-3.5zm0 2.625c0.483 0 0.875 0.392 0.875 0.875s-0.392 0.875-0.875 0.875-0.875-0.392-0.875-0.875 0.392-0.875 0.875-0.875z" fill="#4A413F"/>
</svg>

<svg xmlns="http://www.w3.org/2000/svg" width="24" height="24" version="1">
 <rect style="opacity:0.2" width="20" height="12" x="2" y="9.5" rx="1" ry="1"/>
 <path style="fill:#945e80" d="M 2,17 C 2,17.554 2.446,18 3,18 H 21 C 21.554,18 22,17.554 22,17 V 6 C 22,5.446 21.554,5 21,5 H 12 C 10.5,5 10,3 8.5,3 H 3 C 2.446,3 2,3.446 2,4"/>
 <rect style="opacity:0.2" width="20" height="12" x="2" y="8.5" rx="1" ry="1"/>
 <rect style="fill:#E5DFC8" width="16" height="8" x="4" y="7" rx="1" ry="1"/>
 <rect style="fill:#d3869b" width="20" height="12" x="2" y="9" rx="1" ry="1"/>
 <path style="opacity:0.1;fill:#E5DFC8" d="M 3,3 C 2.446,3 2,3.446 2,4 V 4.5 C 2,3.946 2.446,3.5 3,3.5 H 8.5 C 10,3.5 10.5,5.5 12,5.5 H 21 C 21.554,5.5 22,5.946 22,6.5 V 6 C 22,5.446 21.554,5 21,5 H 12 C 10.5,5 10,3 8.5,3 Z"/>
 <path style="fill:#4A413F" d="M 12.5,11 C 10.567,11 9,12.567 9,14.5 9,16.433 10.567,18 12.5,18 H 14.688 C 14.688,18 15.098,18 15.125,17.562 15.125,17.125 14.688,17.125 14.688,17.125 H 12.5 C 11.05,17.125 9.875,15.95 9.875,14.5 9.875,13.05 11.05,11.875 12.5,11.875 13.95,11.875 15.125,13.05 15.125,14.5 V 14.938 C 15.125,15.179 14.929,15.375 14.688,15.375 14.446,15.375 14.25,15.179 14.25,14.938 V 14.5 C 14.25,13.534 13.467,12.75 12.5,12.75 11.534,12.75 10.75,13.534 10.75,14.5 10.75,15.467 11.534,16.25 12.5,16.25 12.958,16.25 13.371,16.069 13.683,15.782 13.932,16.078 14.3,16.25 14.688,16.25 15.413,16.25 16,15.662 16,14.937 V 14.5 C 16,12.567 14.433,11 12.5,11 Z M 12.5,13.625 C 12.983,13.625 13.375,14.017 13.375,14.5 13.375,14.983 12.983,15.375 12.5,15.375 12.017,15.375 11.625,14.983 11.625,14.5 11.625,14.017 12.017,13.625 12.5,13.625 Z"/>
</svg>
